X:1
T: Jock Scott's Pipe
C: C Sherrit
R:Reel
Q: 232
K:A
M:4/4
L:1/8
d|:cd ed c2 cB|A2 AE FE EA|Bc de fe dc|B2 FA GE Ed|
cd ed c2 cB|A2 AE FE EC|D2 FA E2 Ac|eE GB cA Ad:|
|:ed cB A2 Ac|e2 dB cA Ae|fe dc Bc de|f2 BA GE Ed|
ed cB A2 Ac|e2 dB cA AG|F2 Bd E2 Ac|1eE GB cA Ad:|2eE GB cA A||
